assets/skin-mi-wbc/images/playlistX.svg

<?xml version="1.0" encoding="utf-8"?>
<!-- Generator: Adobe Illustrator 21.0.0, SVG Export Plug-In . SVG Version: 6.00 Build 0)  -->
<svg version="1.1" id="Layer_1" xmlns="http://www.w3.org/2000/svg" xmlns:xlink="http://www.w3.org/1999/xlink" x="0px" y="0px"
	 viewBox="0 0 32 32" style="enable-background:new 0 0 32 32;" xml:space="preserve">
<style type="text/css">
	.st0{opacity:0.302;}
	.st1{fill:#1FABE2;}
</style>
<g id="Rectangle_16" class="st0">
	<g>
		<path class="st1" d="M4.3,17h1.9V15H4.3V17z M14.1,15V17h13.6V15H14.1z M14.1,24.6h13.6v-1.9H14.1V24.6z M4.3,24.6h1.9v-1.9H4.3
			V24.6z M14.1,9.3h13.6V7.4H14.1V9.3z M4.3,9.3h1.9V7.4H4.3V9.3z"/>
	</g>
</g>
<g id="Rectangle_2_copy_8_1_">
	<g>
		<path class="st1" d="M6.3,13.1H4.3c-1.1,0-1.9,0.9-1.9,1.9V17c0,1.1,0.9,1.9,1.9,1.9h1.9c1.1,0,1.9-0.9,1.9-1.9V15
			C8.2,14,7.3,13.1,6.3,13.1z M6.3,17H4.3V15h1.9V17z M27.7,13.1H14.1c-1.1,0-1.9,0.9-1.9,1.9V17c0,1.1,0.9,1.9,1.9,1.9h13.6
			c1.1,0,1.9-0.9,1.9-1.9V15C29.6,14,28.8,13.1,27.7,13.1z M27.7,17H14.1V15h13.6V17z M6.3,20.8H4.3c-1.1,0-1.9,0.9-1.9,1.9v1.9
			c0,1.1,0.9,1.9,1.9,1.9h1.9c1.1,0,1.9-0.9,1.9-1.9v-1.9C8.2,21.7,7.3,20.8,6.3,20.8z M6.3,24.7H4.3v-1.9h1.9V24.7z M27.7,20.8
			H14.1c-1.1,0-1.9,0.9-1.9,1.9v1.9c0,1.1,0.9,1.9,1.9,1.9h13.6c1.1,0,1.9-0.9,1.9-1.9v-1.9C29.6,21.7,28.8,20.8,27.7,20.8z
			 M27.7,24.7H14.1v-1.9h13.6V24.7z M6.3,5.4H4.3c-1.1,0-1.9,0.9-1.9,1.9v1.9c0,1.1,0.9,1.9,1.9,1.9h1.9c1.1,0,1.9-0.9,1.9-1.9V7.3
			C8.2,6.2,7.3,5.4,6.3,5.4z M6.3,9.3H4.3V7.3h1.9V9.3z M27.7,5.4H14.1c-1.1,0-1.9,0.9-1.9,1.9v1.9c0,1.1,0.9,1.9,1.9,1.9h13.6
			c1.1,0,1.9-0.9,1.9-1.9V7.3C29.6,6.2,28.8,5.4,27.7,5.4z M27.7,9.3H14.1V7.3h13.6V9.3z"/>
	</g>
</g>
</svg>

<?xml version="1.0" encoding="UTF-8" standalone="no"?>
<!DOCTYPE svg PUBLIC "-//W3C//DTD SVG 1.1//EN" "http://www.w3.org/Graphics/SVG/1.1/DTD/svg11.dtd">
<svg width="100%" height="100%" viewBox="0 0 32 32" version="1.1" xmlns="http://www.w3.org/2000/svg" xmlns:xlink="http://www.w3.org/1999/xlink" xml:space="preserve" xmlns:serif="http://www.serif.com/" style="fill-rule:evenodd;clip-rule:evenodd;stroke-linejoin:round;stroke-miterlimit:1.41421;">
    <path id="Rectangle_16" d="M4.3,17L6.2,17L6.2,15L4.3,15L4.3,17ZM14.1,15L14.1,17L27.7,17L27.7,15L14.1,15ZM14.1,24.6L27.7,24.6L27.7,22.7L14.1,22.7L14.1,24.6ZM4.3,24.6L6.2,24.6L6.2,22.7L4.3,22.7L4.3,24.6ZM14.1,9.3L27.7,9.3L27.7,7.4L14.1,7.4L14.1,9.3ZM4.3,9.3L6.2,9.3L6.2,7.4L4.3,7.4L4.3,9.3Z" style="fill:none;"/>
    <path id="Rectangle_2_copy_8_1_" d="M6.3,13.1L4.3,13.1C3.2,13.1 2.4,14 2.4,15L2.4,17C2.4,18.1 3.3,18.9 4.3,18.9L6.2,18.9C7.3,18.9 8.1,18 8.1,17L8.1,15C8.2,14 7.3,13.1 6.3,13.1ZM6.3,17L4.3,17L4.3,15L6.2,15L6.2,17L6.3,17ZM27.7,13.1L14.1,13.1C13,13.1 12.2,14 12.2,15L12.2,17C12.2,18.1 13.1,18.9 14.1,18.9L27.7,18.9C28.8,18.9 29.6,18 29.6,17L29.6,15C29.6,14 28.8,13.1 27.7,13.1ZM27.7,17L14.1,17L14.1,15L27.7,15L27.7,17ZM6.3,20.8L4.3,20.8C3.2,20.8 2.4,21.7 2.4,22.7L2.4,24.6C2.4,25.7 3.3,26.5 4.3,26.5L6.2,26.5C7.3,26.5 8.1,25.6 8.1,24.6L8.1,22.7C8.2,21.7 7.3,20.8 6.3,20.8ZM6.3,24.7L4.3,24.7L4.3,22.8L6.2,22.8L6.2,24.7L6.3,24.7ZM27.7,20.8L14.1,20.8C13,20.8 12.2,21.7 12.2,22.7L12.2,24.6C12.2,25.7 13.1,26.5 14.1,26.5L27.7,26.5C28.8,26.5 29.6,25.6 29.6,24.6L29.6,22.7C29.6,21.7 28.8,20.8 27.7,20.8ZM27.7,24.7L14.1,24.7L14.1,22.8L27.7,22.8L27.7,24.7ZM6.3,5.4L4.3,5.4C3.2,5.4 2.4,6.3 2.4,7.3L2.4,9.2C2.4,10.3 3.3,11.1 4.3,11.1L6.2,11.1C7.3,11.1 8.1,10.2 8.1,9.2L8.1,7.3C8.2,6.2 7.3,5.4 6.3,5.4ZM6.3,9.3L4.3,9.3L4.3,7.3L6.2,7.3L6.2,9.3L6.3,9.3ZM27.7,5.4L14.1,5.4C13,5.4 12.2,6.3 12.2,7.3L12.2,9.2C12.2,10.3 13.1,11.1 14.1,11.1L27.7,11.1C28.8,11.1 29.6,10.2 29.6,9.2L29.6,7.3C29.6,6.2 28.8,5.4 27.7,5.4ZM27.7,9.3L14.1,9.3L14.1,7.3L27.7,7.3L27.7,9.3Z" style="fill:rgb(204,204,204);fill-rule:nonzero;stroke:black;stroke-opacity:0.541176;stroke-width:0.5px;"/>
</svg>
